X:61
T:Vincent Campbell's
R:jig
D:Matt Molloy & Sean Keane: Contentment is Wealth
Z:id:hn-jig-61
M:6/8
K:D
dAG FED|~=c3 ed^c|dAF GFE|FED gfe|
dAG FED|AB=c Ae^c|dAF GFE|D^CE D3:|
|:dcd efg|fed cBA|dcd efg|fdc def|
[1 ~g3 faf|ecA ABc|dAF GFE|DCE D3:|
[2 gbb faa|efd cBA|dAF GFE|FED gfe||
P:variations:
d2D FED|=cBc ed^c|dcA GEA|DED gfe|
d2D FED|AB=c Ae^c|dcA GEA|DED DFA|
dDD FED|=cBc ed^c|dAG FGE|DF/G/A f2e|
dDD FED|=cBc ed^c|dAF GFE|FAD DFA|
|:~d3 efg|fed ecA|~d3 eag|fdc def|
[1 gbg ~f3|ecA ABc|dcA GEA|DED DFA:|
[2 ~g3 faf|efd cBA|dcA GEA|DED gfe||
<end>
<start>
